resources/icons/20px/table-sync.svg

<svg width="20" height="20" viewBox="0 0 20 20" fill="none" xmlns="http://www.w3.org/2000/svg">
    <path fill-rule="evenodd" clip-rule="evenodd"
        d="M19 1H1C0.4 1 0 1.5 0 2V18C0 18.5 0.4 19 1 19H8.9991C8.56256 18.4186 8.24982 17.739 8.09993 17H8V16C7.63605 16 7.2944 15.9021 7 15.7313V17H2V14H6C6 13.6382 6.0947 13.296 6.26411 13H2V10H7V12.1658L8 11.1658V10H12V11.1658L12.1286 11.2944C12.2928 10.8609 12.6035 10.4986 13 10.2687V10H18V11.9988C18.628 12.8346 19 13.8737 19 15C19.364 15 19.7056 15.0979 20 15.2687V2C20 1.5 19.5 1 19 1ZM7 9H2V6H7V9ZM12 9H8V6H12V9ZM18 9H13V6H18V9Z"
        fill="#5F6B7C" />
    <path fill-rule="evenodd" clip-rule="evenodd"
        d="M18 16.59V15C18 12.79 16.21 11 14 11C13.45 11 13 11.45 13 12C13 12.55 13.45 13 14 13C15.1 13 16 13.9 16 15V16.59L15.71 16.29C15.53 16.11 15.28 16 15 16C14.45 16 14 16.45 14 17C14 17.28 14.11 17.53 14.29 17.71L16.29 19.71C16.47 19.89 16.72 20 17 20C17.28 20 17.53 19.89 17.71 19.71L19.71 17.71C19.89 17.53 20 17.28 20 17C20 16.45 19.55 16 19 16C18.72 16 18.47 16.11 18.29 16.3L18 16.59ZM9 14.41V16C9 18.21 10.79 20 13 20C13.55 20 14 19.55 14 19C14 18.45 13.55 18 13 18C11.9 18 11 17.1 11 16V14.41L11.29 14.71C11.47 14.89 11.72 15 12 15C12.55 15 13 14.55 13 14C13 13.72 12.89 13.47 12.71 13.29L10.71 11.29C10.53 11.11 10.28 11 10 11C9.72 11 9.47 11.11 9.29 11.29L7.29 13.29C7.11 13.47 7 13.72 7 14C7 14.55 7.45 15 8 15C8.28 15 8.53 14.89 8.71 14.7L9 14.41Z"
        fill="#5F6B7C" />
</svg>

<svg xmlns="http://www.w3.org/2000/svg" viewBox="0 0 20 20">
  <path d="M19 1H1c-.6 0-1 .5-1 1v16c0 .5.4 1 1 1h8a5 5 0 0 1-.9-2H8v-1c-.364 0-.706-.098-1-.269V17H2v-3h4c0-.362.095-.704.264-1H2v-3h5v2.166l1-1V10h4v1.166l.129.128c.164-.433.475-.795.871-1.025V10h5v1.999c.628.836 1 1.875 1 3.001.364 0 .706.098 1 .269V2c0-.5-.5-1-1-1M7 9H2V6h5zm5 0H8V6h4zm6 0h-5V6h5z"/>
  <path d="M18 16.59V15c0-2.21-1.79-4-4-4-.55 0-1 .45-1 1s.45 1 1 1c1.1 0 2 .9 2 2v1.59l-.29-.3a1.003 1.003 0 0 0-1.42 1.42l2 2c.18.18.43.29.71.29s.53-.11.71-.29l2-2A1.003 1.003 0 0 0 19 16c-.28 0-.53.11-.71.3zm-9-2.18V16c0 2.21 1.79 4 4 4 .55 0 1-.45 1-1s-.45-1-1-1c-1.1 0-2-.9-2-2v-1.59l.29.3a1.003 1.003 0 0 0 1.42-1.42l-2-2A1 1 0 0 0 10 11c-.28 0-.53.11-.71.29l-2 2A1.003 1.003 0 0 0 8 15c.28 0 .53-.11.71-.3z"/>
</svg>
